icon/pk/folder-minus.svg

<svg viewBox="0 0 48 48" fill="none" xmlns="http://www.w3.org/2000/svg" height="1em" width="1em">
  <path d="M5 9C5 7.89543 5.89543 7 7 7H19L24 13H41C42.1046 13 43 13.8954 43 15V41C43 42.1046 42.1046 43 41 43H7C5.89543 43 5 42.1046 5 41V9Z" fill="#2F88FF" stroke="black" stroke-width="4" stroke-linejoin="round"/>
  <path d="M17.9497 28L29.9497 28" stroke="white" stroke-width="4" stroke-linecap="round" stroke-linejoin="round"/>
</svg>

<svg width="48" height="48" fill="none" xmlns="http://www.w3.org/2000/svg"><path d="M5 9a2 2 0 0 1 2-2h12l5 6h17a2 2 0 0 1 2 2v26a2 2 0 0 1-2 2H7a2 2 0 0 1-2-2V9Z" fill="#2F88FF" stroke="#000" stroke-width="4" stroke-linejoin="round"/><path d="M17.95 28h12" stroke="#fff" stroke-width="4" stroke-linecap="round" stroke-linejoin="round"/></svg>
